!!!!SEGMENT: pl-kk--kk-i-81--003_anonim--missa-pastoralis-sanctus.krn
!!!cenid: 17xx:2305
!!!COM: Anonim
!!!COM-rismID: pe30004985
!!!CDT:
!!!CNT:
!!!OPR: Missa Pastoralis
!!!OTL: Sanctus
!!!OMV: 003
!!!PDT:
!!!AGN: Sacred; Mass
!!!SMS-siglum: PL-Kk
!!!SMS-shelfmark: Kk.I.81
!!!SMS-shelfwork: 001-003 M
!!!SMS-variant:
!!!SMS-altvar:
!!!NIFC-rismSourceID: 1001155824
!!!NIFC-rismChildID: 1001155824
!!!NIFC-islandoraID: pl-kk:15852
!!!URL-pdf-islandora: https://repozytorium.nifc.pl/islandora/object/pl-kk%3A15852/datastream/PDF/view
!!!URL-scan:
!!!ONB-nifc: UWAGA: części Mszy: 1. Kyrie, 2. Et in terra, 3. Sanctus, 4. Benedictus, 5. Agnus Dei.
!!!AIN: 1 alto 2 empty 1 tenor 1 vox
!!!key:
**kern	**text	**kern	**text	**kern	**text	**kern	**text	**kern	**text
*part5	*part5	*part4	*part4	*part3	*part3	*part2	*part2	*part1	*part1
*staff5	*staff5	*staff4	*staff4	*staff3	*staff3	*staff2	*staff2	*staff1	*staff1
*Iempty	*	*Iempty	*	*Itenor	*	*Ialto	*	*Ivox	*
*I"Baſso eripieno	*	*I"Baſso	*	*I"Tenore	*	*I"Alto	*	*I"Canto	*
*I'B rip	*	*I'B	*	*I'T	*	*I'A	*	*I'S	*
*clefF4	*	*clefF4	*	*clefC4	*	*clefC3	*	*clefC1	*
*k[]	*	*k[]	*	*k[]	*	*k[]	*	*k[]	*
*C:	*	*C:	*	*C:	*	*C:	*	*C:	*
*M4/4	*	*M4/4	*	*M4/4	*	*M4/4	*	*M4/4	*
*met(c)	*	*met(c)	*	*met(c)	*	*met(c)	*	*met(c)	*
=1	=1	=1	=1	=1	=1	=1	=1	=1	=1
*	*	*	*	*	*	*2\right	*	*	*
!	!	!LO:TX:a:B:t=ada&colon;	!	!LO:TX:a:B:t=ada&colon;	!	!LO:TX:a:Bi:t=Adag	!	!	!
8.C/	Sanc-	8.C/	San-	2G/	Sanc-	2e\	Sanc-	8.e/	San-
16c\	.	16c\	.	.	.	.	.	16ee\	.
8.B\L	.	8.B\L	.	.	.	.	.	8.dd\L	.
16A\Jk	.	16A\Jk	.	.	.	.	.	16cc\Jk	.
8.G\L	.	8.G\L	.	2G/	-tus	2e\	-tus	8.b\L	.
16F\Jk	.	16F\Jk	.	.	.	.	.	16a\Jk	.
8.E\L	.	8.E\L	.	.	.	.	.	8.g/L	.
16D\Jk	.	16D\Jk	.	.	.	.	.	16f/Jk	.
=2	=2	=2	=2	=2	=2	=2	=2	=2	=2
!	!	!	!	!LO:SIC:v:l:s=Sanc-	!	!	!	!	!
2C/	-ctus	2C/	-ctus	8.c\L	San-	8.e\	Sanc-	2g/	-ctus
.	.	.	.	16c\Jk	.	16e\	.	.	.
.	.	.	.	8.B\L	.	8.d\L	.	.	.
.	.	.	.	16A\Jk	.	16f\Jk	.	.	.
2r	.	2r	.	8.G/L	.	8.e\L	.	2r	.
.	.	.	.	16F/Jk	.	16d\Jk	.	.	.
.	.	.	.	8.E/L	.	8.c/L	.	.	.
.	.	.	.	16D/Jk	.	16B/Jk	.	.	.
=3	=3	=3	=3	=3	=3	=3	=3	=3	=3
!LO:SIC:v:l:s=Sanc-	!	!	!	!	!	!	!	!	!
8.C/L	San-	8.C/L	Sanc-	2E/	-tus	2c/	-tus	8.e/L	San-
16C/Jk	.	16C/Jk	.	.	.	.	.	16e/Jk	.
8.D/L	.	8.D/L	.	.	.	.	.	8.f/L	.
16E/Jk	.	16E/Jk	.	.	.	.	.	16g/Jk	.
8.F\L	.	8.F\L	.	[>2E/	San-	[>2c/	Sanc-	8.a/L	.
16G\Jk	.	16G\Jk	.	.	.	.	.	16b-X/Jk	.
8.A\L	.	8.A\L	.	.	.	.	.	8.cc/L	.
16B-X\Jk	.	16B-X\Jk	.	.	.	.	.	16g/Jk	.
=4	=4	=4	=4	=4	=4	=4	=4	=4	=4
*2\right	*	*2\right	*	*	*	*	*	*2\right	*
2B-y\	.	2B-X\	.	2E/]	.	2c/]	.	2g\	.
!	!	!	!	!	!	!	!	!LO:SIC:v:l:s=-ctus	!
8A\	-tus	8A\	-tus	8F/	-ctus	8c\	-tus	8a\	-tus
*	*	*	*	*	*ij	*	*ij	*	*
8r	.	8r	.	4c\	San-	8f\L	Sanc-	8a\L	San-
4r	.	4r	.	.	.	8e\J	.	8g\J	.
.	.	.	.	8c\	-ctus	8f\	-tus	8a\	-ctus
*	*	*	*	*	*Xij	*	*Xij	*	*
!	!	!	!	!	!	!	!	!LO:LB:g=original	!
=5	=5	=5	=5	=5	=5	=5	=5	=5	=5
*	*	*	*	*2\right	*	*	*	*	*
!LO:SIC:v:l:s=Sanc-	!	!LO:SIC:v:l:s=Sanc-	!	!	!	!	!	!LO:TX:t=P:problem=mixed beam	!
8.D\L	San-	8.D\L	San-	2A\	San-	2f#X\	Sanc-	8.f#X/L	San-
16d\Jk	.	16d\Jk	.	.	.	.	.	16ff#y\Jk	.
8.c#X\L	.	8.c#X\L	.	.	.	.	.	8.ee\L	.
16B\Jk	.	16B\Jk	.	.	.	.	.	16dd\Jk	.
!	!	!LO:LB:g=original	!	!	!	!	!	!	!
8.A\L	.	8.A\L	.	2A\	-ctus	2f#\	-tus	8.cc#X\L	.
16G\Jk	.	16G\Jk	.	.	.	.	.	16b\Jk	.
8.F#X\L	.	8.F#X\L	.	.	.	.	.	8.a\L	.
16E\Jk	.	16E\Jk	.	.	.	.	.	16g\Jk	.
!LO:LB:g=original	!	!	!	!	!	!	!	!	!
=6	=6	=6	=6	=6	=6	=6	=6	=6	=6
2D/	-tus	2D/	-tus	8.d\L	Sanc-	8.f#X\L	Sanc-	2a\	-ctus
.	.	.	.	16d\Jk	.	16f#\Jk	.	.	.
.	.	.	.	8.c#X\L	.	8.e\L	.	.	.
.	.	.	.	16B\Jk	.	16g\Jk	.	.	.
!	!	!	!	!	!	!LO:LB:g=original	!	!	!
2r	.	2r	.	8.A\L	.	8.f#X\L	.	2r	.
.	.	.	.	16G\Jk	.	16e\Jk	.	.	.
.	.	.	.	8.F#X\L	.	8.d\L	.	.	.
.	.	.	.	16E\Jk	.	16c#X\Jk	.	.	.
!	!	!	!	!LO:LB:g=original	!	!	!	!	!
=7	=7	=7	=7	=7	=7	=7	=7	=7	=7
!	!	!LO:SIC:v:l:s=Sanc-	!	!	!	!	!	!	!
8.D/L	Sanc-	8.D/L	San-	2F#X/	-tus	2d\	-tus	8.f#X/L	San-
16D/Jk	.	16D/Jk	.	.	.	.	.	16f#/Jk	.
8.E/L	.	8.E\L	.	.	.	.	.	8.g/L	.
16F/Jk	.	16F\Jk	.	.	.	.	.	16a/Jk	.
!	!	!	!	!LO:SIC:v:l:s=Sanc-	!	!	!	!	!
8.G\L	.	8.G\L	.	[>2F#/	San-	[2d\	Sanc-	8.b\L	.
16A\Jk	.	16A\Jk	.	.	.	.	.	16ccn\Jk	.
8.B\L	.	8.B\L	.	.	.	.	.	8.dd\L	.
16cn\Jk	.	16cn\Jk	.	.	.	.	.	16cc\Jk	.
=8	=8	=8	=8	=8	=8	=8	=8	=8	=8
2c\	.	2c\	.	2F#/]	.	2d\]	.	2a\	.
!	!	!	!	!	!	!	!	!LO:SIC:v:l:s=-ctus	!
8B\	-tus	8B\	-tus	8G/	-tus	8d\	-tus	8g\	-tus
*	*	*	*	*	*ij	*	*ij	*	*ij
!	!	!LO:SIC:v:l:s=Sanc-	!	!LO:SIC:v:l:s=Sanc-	!	!	!	!	!
8G\L	Sanc-	8G\L	San-	8G/L	San-	8d\L	Sanc-	8b\L	San-
8D\J	.	8D\J	.	8F#X/J	.	8c\J	.	8a\J	.
!	!	!	!	!	!	!	!	!LO:SIC:v:l:s=-ctus	!
8GG/	-tus	8GG/	-tus	8G/	-tus	8d\	-tus	8b\	-tus
*	*	*	*	*	*Xij	*	*Xij	*	*Xij
=9	=9	=9	=9	=9	=9	=9	=9	=9	=9
!	!	!	!	!	!	!LO:TX:a:t=P:problem=♮ above	!	!	!
8GG/	Do-	8GG/	Do-	8G/	Do-	8fn\	Do-	8dd\	Do-
8GG/	-mi-	8GG/	-mi-	8G/	-mi-	16f\LL	-mi-	16dd\LL	-mi-
.	.	.	.	.	.	16d\JJ	.	16b\JJ	.
4C/	-nus	4C/	-nus	4G/	-nus	4e\	-nus	4cc\	-nus
4GG/	De-	4GG/	De-	4G/	De-	8d/L	De-	8ff\L	De-
.	.	.	.	.	.	8B/J	.	8dd\J	.
4C/	-us	4C/	-us	4G/	-us	4c/	-us	4ee\	-us
!	!	!	!	!	!	!	!	!LO:PB:g=original	!
=10	=10	=10	=10	=10	=10	=10	=10	=10	=10
4.A\	Sa-	4.A\	Sa-	4.F#X/	Sa-	4.c/	Sa-	4.cc\	Sa-
8A\	-ba-	8A\	-ba-	8F#/	-ba-	8c/	-ba-	8cc\	-ba-
2G\	-oth.	2G\	-oth	2G/	-oth.	2d/	-oth	2b\	-oth
!LO:PB:g=original	!	!LO:LB:g=original	!	!LO:PB:g=original	!	!LO:LB:g=original	!	!	!
=11||	=11||	=11||	=11||	=11||	=11||	=11||	=11||	=11||	=11||
*M3/4	*	*M3/4	*	*M3/4	*	*M3/4	*	*M3/4	*
!	!	!LO:TX:a:B:t=allȏ	!	!	!	!	!	!	!
!LO:TX:t=P:problem=mixed beam	!	!LO:TX:t=P:problem=mixed beam	!	!	!	!	!	!	!
8C/L	Ple-	8C/L	Ple-	4G/	Ple-	4e\	Ple-	4cc\	Ple-
8c\J	.	8c\J	.	.	.	.	.	.	.
8G\L	-ni	8G\L	-ni	4G/	-ni	4e\	-ni	4cc\	-ni
8E\J	.	8E\J	.	.	.	.	.	.	.
4C/	sunt	4C/	sunt	4G/	sunt	4e\	sunt	4cc\	sunt
=12	=12	=12	=12	=12	=12	=12	=12	=12	=12
2G\	Cae-	2G\	Cae-	2B\	Cae-	(4f\	Cae-	4dd\	Cae-
.	.	.	.	.	.	4d\)	.	4g/	.
4GG/	-li	4GG/	-li	4G/	-li	4f\	-li	4dd\	-li
=13	=13	=13	=13	=13	=13	=13	=13	=13	=13
4C/	Ple-	4C/	Plae-	4G/	Ple-	8g\L	Ple-	8ee\L	Ple-
.	.	.	.	.	.	16f\L	.	16dd\L	.
.	.	.	.	.	.	16g\JJ	.	16ee\JJ	.
4C/	-ni	4C/	-ni	4c/	-ni	4a\	-ni	4ff\	-ni
4C/	sunt	4C/	sunt	4G/	sunt	4f\	sunt	4dd\	sunt
=14	=14	=14	=14	=14	=14	=14	=14	=14	=14
4C/	cae-	4C/	cae-	2G/	cae-	(4e\	Cae-	4cc\	Cae-
4GG/	.	4GG/	.	.	.	4d\)	.	4b\	.
4C/	-li	4C/	-li	4G/	-li	4e\	-li	4cc\	-li
=15	=15	=15	=15	=15	=15	=15	=15	=15	=15
!LO:N:vis=00	!	!LO:N:vis=00	!	!	!	!	!	!	!
0.r	.	0.r	.	4G/	ple-	4d\	ple-	4b\	ple-
.	.	.	.	4G/	-ni	4d\	-ni	4b\	-ni
.	.	.	.	4G/	sunt	4d\	sunt	4b\	sunt
=16	=16	=16	=16	=16	=16	=16	=16	=16	=16
.	.	.	.	4A/	cae-	4d\	Cae-	4cc\	Cae-
.	.	.	.	4F#X/	.	4d\	-li	4a\	.
.	.	.	.	4A/	-li	4d\	sunt	4cc\	-li
=17	=17	=17	=17	=17	=17	=17	=17	=17	=17
.	.	.	.	8G/L	cae-	4d\	Cae-	8b\L	Cae-
.	.	.	.	16F/L	.	.	.	16a\L	.
.	.	.	.	16G/JJ	.	.	.	16b\JJ	.
.	.	.	.	4A/	-li	4d\	-li	4cc\	-li
.	.	.	.	4G/	et	4d\	et	4b\	et
!	!	!	!	!	!	!	!	!LO:LB:g=original	!
=18	=18	=18	=18	=18	=18	=18	=18	=18	=18
.	.	.	.	2F#X/	ter-	2d\	ter-	2a\	ter-
.	.	.	.	4G/	-ra	4d\	-ra	4g\	-ra
=19	=19	=19	=19	=19	=19	=19	=19	=19	=19
4G\	glo-	4G\	glo-	(4G/	glo-	4g\	glo-	4gg\	glo-
4E\	-ri-	4E\	-ri-	4E/)	.	4e\	-ri-	4ee\	-ri-
4BB/	-a	4BB/	-a	8B|\	-ri-	4B\	-a	4b\	-a
.	.	.	.	8B|\	-a	.	.	.	.
!	!	!	!	!LO:LB:g=original	!	!LO:LB:g=original	!	!	!
=20	=20	=20	=20	=20	=20	=20	=20	=20	=20
4C/	tu-	(4C/	tu-	(4c\	tu-	(4c\	tu-	4cc\	tu-
4E/	.	4E/)	.	4e\)	.	4e\)	.	4ee\	.
4GG/	-a	4GG/	-a	4G/	-a	4G/	-a	4g/	-a
=21	=21	=21	=21	=21	=21	=21	=21	=21	=21
4C/	o-	4C\	o-	4C/	o-	4c\	o-	4cc\	o-
4E/	-sa(n)-	4E\	-san-	4E/	-sa(n)-	4e\	-sa(n)-	4ee\	-sa(n)-
4F/	-na	4F\	-na	4F/	-na	4f\	-na	4ff\	-na
=22	=22	=22	=22	=22	=22	=22	=22	=22	=22
2G\	in	2G\	in	2G/	in	(4g\	in	4ee\	in
.	.	.	.	.	.	4f\)	.	4dd\	.
4GG/	ex-	4GG/	ex-	4c\	ex-	4e|\	ex-	4cc\	ex-
=23	=23	=23	=23	=23	=23	=23	=23	=23	=23
2G\	-cel-	2G\	-cel-	2G/	-cel-	(4f\	-cel-	4dd\	-cel-
.	.	.	.	.	.	4e\)	.	4cc\	.
4GG/	-sis	4GG/	-lis	4G/	-sis	4d\	-sis	4b\	-sis
!LO:LB:g=original	!	!LO:LB:g=original	!	!	!	!	!	!	!
=24	=24	=24	=24	=24	=24	=24	=24	=24	=24
4E\	o-	4E\	o-	4E/	o-	4e\	o-	4ee\	o-
8G\L	-sa(n)-	8G\L	-san-	8G/L	-san-	8g\L	-san-	8gg\L	-san-
8E\J	.	8E\J	.	8E/J	.	8e\J	.	8ee\J	.
4C/	-na	4C/	-na	4C/	-na	4c\	-na	4cc\	-na
=25	=25	=25	=25	=25	=25	=25	=25	=25	=25
4D/	in	4D/	in	4D/	in	4d\	in	4dd\	in
8F/L	ex-	8F/L	ex-	8F/L	ex-	8f\L	ex-	8ff\L	ex-
8D/J	.	8D/J	.	8D/J	.	8d\J	.	8dd\J	.
4BB/	-cel-	4BB/	-cel-	4BB/	-cel-	4B\	-cel-	4b\	-cel-
=26	=26	=26	=26	=26	=26	=26	=26	=26	=26
4C/	-sis	4C/	-sis	4C/	-sis	4c\	-sis	4cc\	-sis
4C/	in	4C/	in	4G/	in	4e\	in	4cc\	in
4C/	ex-	4C/	ex-	4G/	ex-	4e\	ex-	4cc\	ex-
=27	=27	=27	=27	=27	=27	=27	=27	=27	=27
2.C/	-cel-	2.C/	-cel-	2.A\	-cel-	2.f\	-cel-	2.cc\	-cel-
=28	=28	=28	=28	=28	=28	=28	=28	=28	=28
2.C/	-sis	2.C/	-sis	2.G/	-sis	2.e\	-sis	2.cc\	-sis
==	==	==	==	==	==	==	==	==	==
*-	*-	*-	*-	*-	*-	*-	*-	*-	*-
!!!system-decoration: [(s1,s2,s3,s4)]s5
!!!RDF**kern: > = above
!!!RDF**kern: | = vertical stroke
!!!ENC: Andrzej Kubiczek
!!!END: 2021-08-07
!!!ENC: Anastazja Marusiak
!!!END: 2021-07-13
!!!YEC: Copyright 2022 Narodowy Instytut Fryderyka Chopina (https://polishscores.org)
!!!YEM: License CC-BY-4.0 (https://creativecommons.org/licenses/by/4.0)
